outputs/icons/editor/align_left_sharp.svg

<svg xmlns="http://www.w3.org/2000/svg" width="1200" height="1200" fill="none"><g clip-path="url(#a)"><path fill="#000" d="M750 750H150v100h600zm0-400H150v100h600zM150 650h900V550H150zm0 400h900V950H150zm0-900v100h900V150z"/></g><defs><clipPath id="a"><path fill="#fff" d="M0 0h1200v1200H0z"/></clipPath></defs></svg>

<svg width="1200" height="1200" viewBox="0 0 1200 1200" fill="none" xmlns="http://www.w3.org/2000/svg"><g clip-path="url(#clip0_125_1487)"><path d="M750 750H150V850H750V750ZM750 350H150V450H750V350ZM150 650H1050V550H150V650ZM150 1050H1050V950H150V1050ZM150 150V250H1050V150H150Z" fill="#1D1E23"/></g><defs><clipPath id="clip0_125_1487"><path width="24" fill="white" d="M0 0H1200V1200H0V0z"/></clipPath></defs></svg>
